X:128
T:Sporting Days Of Easter, The
T:Micho Russell's
R:reel
H:Related to "The Lady's Cup of Tea" from the Goodman Collection
D:Arty McGlynn & Nollaig Casey: Lead the Knave
Z:id:hn-reel-128
M:C|
K:Dmix
d2cA GEEG | (3ABA GE (3ABA D2 | d2cA GEEG | (3ABA GE D4 :|
|: c3d egge | eaae egge |1 c3d egge | abge d2ed :|2 f2ed cAGB | Addc defe ||
P:variations
|: d2cA GE~E2 | ABAG ~A3B | d2cA GE~E2 |1 EAGE DEFA :|2 ABAG EDD2 ||
|: cBcd eg~g2 | a2ag eg~g2 |1 cBcd eg~g2 | abge dged :|2 fged cAGB | Ad^ce defe ||

